images/themes/default/algorithms/mAlgorithmDistanceMatrix.svg

<svg height="24" viewBox="0 0 6.35 6.35" width="24" xmlns="http://www.w3.org/2000/svg"><g stroke="#61635f" stroke-linecap="round" stroke-width=".265"><path d="m.397.397h5.556v5.556h-5.556z" fill="#e6e6e6"/><path d="m.397 5.159h5.556v.794h-5.556zm0-4.762h.794v.794h-.794zm0 .794h1.587v.794h-1.587z" fill="#e6e6e6"/><path d="m.397 1.984h2.381v.794h-2.381zm0 .794h3.175v.794h-3.175zm0 .794h3.969v.794h-3.969zm0 .794h4.762v.794h-4.762z" fill="#e6e6e6"/><g fill="none"><path d="m.397.397h.794v5.556h-.794zm.794.794h.794v4.763h-.794z"/><path d="m1.984 1.984h.794v3.969h-.794zm.794.794h.794v3.175h-.794z"/><path d="m3.572 3.572h.794v2.381h-.794zm.794.794h.794v1.588h-.794z"/><path d="m5.159 5.159h.794v.794h-.794z"/></g></g></svg>

<svg xmlns="http://www.w3.org/2000/svg" width="24" height="24" viewBox="0 0 6.35 6.35"><path fill="#e6e6e6" stroke="#61635f" stroke-width=".265" stroke-linecap="round" d="M.397.397h5.556v5.556H.397z"/><path fill="#e6e6e6" stroke="#61635f" stroke-width=".265" stroke-linecap="round" d="M.397 5.159h5.556v.794H.397zM.397.397h.794v.794H.397zM.397 1.191h1.587v.794H.397z"/><path fill="#e6e6e6" stroke="#61635f" stroke-width=".265" stroke-linecap="round" d="M.397 1.984h2.381v.794H.397zM.397 2.778h3.175v.794H.397zM.397 3.572h3.969v.794H.397zM.397 4.366h4.762v.794H.397z"/><path fill="none" stroke="#61635f" stroke-width=".265" stroke-linecap="round" d="M.397.397h.794v5.556H.397zM1.191 1.191h.794v4.763h-.794z"/><path fill="none" stroke="#61635f" stroke-width=".265" stroke-linecap="round" d="M1.984 1.984h.794v3.969h-.794zM2.778 2.778h.794v3.175h-.794z"/><path fill="none" stroke="#61635f" stroke-width=".265" stroke-linecap="round" d="M3.572 3.572h.794v2.381h-.794zM4.366 4.366h.794v1.588h-.794z"/><path fill="none" stroke="#61635f" stroke-width=".265" stroke-linecap="round" d="M5.159 5.159h.794v.794h-.794z"/></svg>
